X:258
T: ES MARSCHIERTEN DREI REGIMENTER
N: E0132
O: Europa, Mitteleuropa, Deutschland, Bergisches Land; Kleve
R: erzaehlendes Volks - Lied, Schalk -, Schelmen - Lied, Vergewaltigung
M: 2/4
L: 1/16
K: G
D2 | D2G2G2G2 | G4A2
A2 | B4A2A2 | G4z2
G2 | F2A2A2A2 | A4B2
d2 | c4B2B2 | A4
d4 | B2B2B2B2 | B2d2c2
B2 | A3GF2G2 | A4z2
GA | B4B4 | d3cB2
A2 | B4A4 | G4z2

@@@ Tune index: 3908
